X: 322
T:The Mouse In The Jug
T:The Bush on the Hill
T:Unknown Jig 160A
M:C|
L:1/8
R:Jig
Z:Kevin Gow
K:G
G2G EGD|G2G Bdg|efg dBG|AGA BGE|G2G EGD|G2G Bdg|!
efg dBG|AGF G2z:||:gab agf|edg ed^c|deg edB|BAG A2f|!
gab agf|edg ed^c|deg edB|AGF G2f|gab agf|edg ed^c|!
deg edB|BAG A2z|G2G EGD|G2GBdg|efg dBG|AGF G2z||
<end>
<start>
